X:1
T:Road to Cashel
C:Charlie Lennon
R:reel
L:1/8
M:4/4
K:Edor
|:FEEDE2EB  | FEEEdEcd | FEEDDEBA       | FEdEBdAd :|
  B3dfdef   | dfabagfd | B/c/dgef/f/ffe | dBAcBEFA  |
  BB,Bdfdef | dfabafef | bff/f/fafef    | bfafedBA

